legacy/static/svg/mace.svg

<?xml version="1.0" encoding="UTF-8" standalone="no"?>
<!-- Generator: Adobe Illustrator 19.0.0, SVG Export Plug-In . SVG Version: 6.00 Build 0)  -->

<svg
   xmlns:dc="http://purl.org/dc/elements/1.1/"
   xmlns:cc="http://creativecommons.org/ns#"
   xmlns:rdf="http://www.w3.org/1999/02/22-rdf-syntax-ns#"
   xmlns:svg="http://www.w3.org/2000/svg"
   xmlns="http://www.w3.org/2000/svg"
   xmlns:sodipodi="http://sodipodi.sourceforge.net/DTD/sodipodi-0.dtd"
   xmlns:inkscape="http://www.inkscape.org/namespaces/inkscape"
   version="1.1"
   id="Capa_1"
   x="0px"
   y="0px"
   viewBox="0 0 512 512"
   style="enable-background:new 0 0 512 512;"
   xml:space="preserve"
   sodipodi:docname="mace.svg"
   inkscape:version="0.92.2 5c3e80d, 2017-08-06"><metadata
     id="metadata1122"><rdf:RDF><cc:Work
         rdf:about=""><dc:format>image/svg+xml</dc:format><dc:type
           rdf:resource="http://purl.org/dc/dcmitype/StillImage" /></cc:Work></rdf:RDF></metadata><defs
     id="defs1120" /><sodipodi:namedview
     pagecolor="#ffffff"
     bordercolor="#666666"
     borderopacity="1"
     objecttolerance="10"
     gridtolerance="10"
     guidetolerance="10"
     inkscape:pageopacity="0"
     inkscape:pageshadow="2"
     inkscape:window-width="1680"
     inkscape:window-height="1005"
     id="namedview1118"
     showgrid="false"
     inkscape:zoom="1.546875"
     inkscape:cx="256"
     inkscape:cy="256"
     inkscape:window-x="0"
     inkscape:window-y="1"
     inkscape:window-maximized="1"
     inkscape:current-layer="Capa_1" /><path
     d="M 466.99414 0.01953125 C 455.46927 0.01953125 443.93939 4.4071406 435.15039 13.181641 C 430.23939 18.103641 427.05544 23.374109 424.89844 29.537109 C 424.77944 29.535109 424.67173 29.470703 424.55273 29.470703 L 323.45117 29.470703 C 300.95117 29.470703 281.75 46.552906 278.75 68.753906 L 264.17383 171.54297 C 249.75283 168.47397 234.23211 171.71072 223.03711 182.88672 C 209.24711 196.67672 206.69713 217.0842 214.57812 233.7832 L 142.29102 306.07031 L 205.92578 369.70312 L 278.21289 297.41797 C 297.42289 306.47397 316.56005 301.49703 329.12305 288.95703 C 340.24105 277.81103 343.48823 262.37777 340.49023 248.00977 L 443.45312 233.15625 C 465.35213 230.15525 482.45312 210.95586 482.45312 188.75586 L 482.45312 87.353516 C 482.45312 87.269516 482.40825 87.187516 482.40625 87.103516 C 488.59725 84.944516 493.8765 81.759078 498.8125 76.830078 C 516.3585 59.285078 516.43245 30.798641 498.81445 13.181641 C 490.03995 4.4071406 478.51902 0.01953125 466.99414 0.01953125 z M 466.99805 29.998047 C 470.83942 30.001047 474.67902 31.470531 477.60352 34.394531 C 483.49052 40.309531 483.44656 49.773844 477.60156 55.589844 L 477.60156 55.605469 C 471.76556 61.441469 462.32398 61.448156 456.45898 55.660156 L 456.35352 55.554688 C 456.35352 55.554688 456.33612 55.540203 456.32812 55.533203 C 450.54613 49.685203 450.55395 40.217531 456.37695 34.394531 C 459.31295 31.458531 463.15667 29.995047 466.99805 29.998047 z M 323.44922 59.472656 L 375.05078 59.472656 L 341.44922 80.453125 C 335.44822 84.053125 330.35 89.452125 326.75 95.453125 L 298.54883 141.05664 L 308.44922 72.953125 C 309.34822 65.453125 315.94922 59.472656 323.44922 59.472656 z M 452.45312 136.85547 L 452.45312 188.75586 C 452.45312 196.25586 446.45195 202.55608 439.25195 203.45508 L 371.45117 213.05469 L 416.75195 185.45508 C 422.75195 181.55508 427.85117 176.45508 431.45117 170.45508 L 452.45312 136.85547 z M 254.84766 199.7168 C 258.69103 199.71492 262.53648 201.17566 265.45898 204.09766 C 265.45898 204.09766 307.53961 246.34725 307.84961 246.65625 C 307.91561 246.71625 308.00036 246.73497 308.06836 246.79297 C 313.68536 252.65397 313.66448 261.97709 307.89648 267.74609 C 302.03748 273.59109 292.53188 273.62009 286.67188 267.74609 L 244.24805 225.32422 C 238.40305 219.46522 238.40305 209.95828 244.24805 204.11328 C 247.16305 201.18378 251.00428 199.71867 254.84766 199.7168 z M 121.07812 327.2832 L 51.226562 397.13477 L 45.001953 397.13477 C 20.186953 397.13477 -4.7369516e-15 417.32072 0 442.13672 L 0 466.98047 C 0 491.79447 20.186953 511.98047 45.001953 511.98047 L 69.859375 511.98047 C 94.673375 511.98047 114.85938 491.79547 114.85938 466.98047 L 114.85938 460.76953 L 184.71289 390.91797 L 121.07812 327.2832 z M 45.001953 426.93555 L 51.226562 426.93555 L 84.960938 460.76953 L 84.960938 466.98047 C 84.960938 475.25647 78.137328 481.98047 69.861328 481.98047 L 45.001953 481.98047 C 36.725953 481.98047 29.945312 475.25647 29.945312 466.98047 L 29.945312 442.13672 C 29.945312 433.86072 36.725953 426.93555 45.001953 426.93555 z "
     id="path1075" /></svg>

<?xml version="1.0" encoding="iso-8859-1"?>
<!-- Generator: Adobe Illustrator 19.0.0, SVG Export Plug-In . SVG Version: 6.00 Build 0)  -->
<svg version="1.1" id="Capa_1" xmlns="http://www.w3.org/2000/svg" xmlns:xlink="http://www.w3.org/1999/xlink" x="0px" y="0px"
	 viewBox="0 0 512 512" style="enable-background:new 0 0 512 512;" xml:space="preserve">
<g>
	<g>
		<path d="M498.814,13.181c-17.549-17.549-46.085-17.549-63.663,0c-4.911,4.922-8.095,10.193-10.252,16.356
			c-0.119-0.002-0.227-0.066-0.346-0.066H323.451c-22.5,0-41.701,17.081-44.701,39.282l-14.577,102.79
			c-14.421-3.069-29.941,0.167-41.136,11.343c-13.79,13.79-16.34,34.198-8.459,50.897l-72.287,72.287l63.634,63.634l72.287-72.287
			c19.21,9.056,38.349,4.081,50.912-8.459c11.118-11.146,14.365-26.581,11.367-40.949l102.962-14.852
			c21.899-3.001,39.001-22.202,39.001-44.402V87.353c0-0.084-0.046-0.165-0.048-0.249c6.191-2.159,11.471-5.345,16.407-10.274
			C516.359,59.285,516.432,30.798,498.814,13.181z M307.897,267.747c-5.859,5.845-15.366,5.874-21.226,0l-42.423-42.423
			c-5.845-5.859-5.845-15.366,0-21.211c5.83-5.859,15.366-5.859,21.211-0.015c0,0,42.08,42.249,42.39,42.558
			c0.066,0.06,0.152,0.079,0.22,0.137C313.686,252.654,313.665,261.978,307.897,267.747z M326.75,95.454l-28.201,45.602
			l9.901-68.102c0.899-7.5,7.5-13.481,15-13.481h51.6L341.45,80.453C335.449,84.053,330.35,89.453,326.75,95.454z M452.453,188.755
			c0,7.5-6.001,13.801-13.201,14.7l-67.801,9.6l45.301-27.599c6-3.9,11.1-9,14.7-15l21.001-33.601V188.755z M477.602,55.59
			c0,0.015,0,0.015,0,0.015c-5.836,5.836-15.278,5.843-21.143,0.055l-0.106-0.106c0,0-0.016-0.013-0.024-0.02
			c-5.782-5.848-5.775-15.317,0.048-21.14c5.872-5.872,15.377-5.848,21.226,0C483.49,40.309,483.447,49.774,477.602,55.59z"/>
	</g>
</g>
<g>
	<g>
		<path d="M121.078,327.283l-69.852,69.852h-6.225C20.186,397.135,0,417.32,0,442.136v24.844c0,24.814,20.186,45.001,45.001,45.001
			h24.858c24.814,0,45.001-20.186,45.001-45.001v-6.211l69.852-69.852L121.078,327.283z M84.961,466.98c0,8.276-6.824,15-15.1,15
			H45.001c-8.276,0-15.055-6.724-15.055-15v-24.844c0-8.276,6.779-15.2,15.055-15.2h6.226l33.734,33.834V466.98z"/>
	</g>
</g>
<g>
</g>
<g>
</g>
<g>
</g>
<g>
</g>
<g>
</g>
<g>
</g>
<g>
</g>
<g>
</g>
<g>
</g>
<g>
</g>
<g>
</g>
<g>
</g>
<g>
</g>
<g>
</g>
<g>
</g>
</svg>
